!!!!SEGMENT: pl-kozmzk--mzk-m-159--001-033_walczynski-franciszek--praeludia-organi-op-5-33-andante.krn
!!!cenid: 18xx:2776
!!!COM: Walczyński, Franciszek
!!!COM-rismID: pe30021989
!!!CDT: ~1852-1937
!!!CNT: Polish
!!!GTL: Praeludia organi op. 5
!!!OTL: 33. Andante
!!!OMV: 033
!!!PDT: 1894
!!!AGN: Secular; Prelude
!!!YEC: Copyright 2022 Narodowy Instytut Fryderyka Chopina (https://polishscores.org)
!!!YEM: License CC-BY-4.0 (https://creativecommons.org/licenses/by/4.0)
!!!SMS-siglum: PL-KOZmzk
!!!SMS-shelfmark: mzk/m/159
!!!SMS-shelfwork: 001-033 G
!!!SMS-variant:
!!!SMS-altvar:
!!!NIFC-rismSourceID: 1001084394
!!!NIFC-rismChildID: 1001118835
!!!NIFC-islandoraID: pl-kozmzk:2265
!!!URL-pdf-islandora: https://repozytorium.nifc.pl/islandora/object/pl-kozmzk%3A2265/datastream/PDF/view
!!!URL-scan: https://polish.musicsources.pl/pl/lokalizacje/galeria/druki-muzyczne/7406 @EN{Scan on Polish Music Sources Website} @PL{Skany w portalu Dziedzictwo Muzyki Polskiej w otwartym dostępie}
!!!IIIF:
!!!ONB-nifc: UWAGA: numeracja plików zgodna z numeracją źrodłową
!!!OMD: 33. Andante.
!!!AIN: 1 empty 1 organ
!!!key:
**kern	**kern	**dynam
*part2	*part1	*
*staff2	*staff1	*
*Iempty	*Iorgan	*
*	*I"[Organi]	*
*clefF4	*clefG2	*
*k[b-e-a-]	*k[b-e-a-]	*
*E-:	*E-:	*
*M2/4	*M2/4	*
=1	=1	=1
*^	*^	*
!	!	!	!	!LO:DY:b=2
2r	(4E-\	2r	2r	p
.	8D\L	.	.	.
.	8C\J	.	.	.
=2	=2	=2	=2	=2
4B-/	4BB-\	2r	2r	.
(8An/L	8C\L	.	.	.
8A-X/J	8D\J)	.	.	.
=3	=3	=3	=3	=3
4G/	(4E-\	2r	(4e-\	p
8A-/L	8F\L	.	8d\L	.
8An/J)	8F#X\J	.	8c\J	.
=4	=4	=4	=4	=4
4Bn/	4G\	2r	4g\	.
8c/L	8An\L	.	8f#X\L	.
8d/J	8B\J)	.	8fn\J)	.
=5	=5	=5	=5	=5
4e-/	(4c\	(4ee-/	4g\	f
8Bn/L	8G\L	8dd/L	8f\L	.
8c/J	8A-\J	8cc/J	8e-\J	.
=6	=6	=6	=6	=6
4d/	4B-\	4b-/	4f\	.
8c/L	8F#X\L	8an/L	8e-\L	.
8B-/J	8Fn\J)	8a-X/J)	8d\J	.
=7	=7	=7	=7	=7
4B-/	(8E-\L	(4g/	[2e-\	.
.	8D-X\	.	.	.
8A-/L	8C\	8a-/L	.	.
8B-/J	8BB-\J	8g/J	.	.
=8	=8	=8	=8	=8
4c/	4AA-\	4f/	4e-\]	>
4A-/	4BB-\	4b-/	4d\	]]
=9	=9	=9	=9	=9
4G/	4E-\)	4e-/)	(4e-\	p
4r	4r	4r	8d\L	.
.	.	.	8c\J	.
=10	=10	=10	=10	=10
2r	2r	(4b-/	4B-\	.
.	.	8an/L	8c\L	.
.	.	8a-X/J)	8d\J)	.
!!LO:LB:g=original
=11	=11	=11	=11	=11
2r	(4E-\	2g/	2e-\	.
.	8D\L	.	.	.
.	8C\J	.	.	.
=12	=12	=12	=12	=12
4B-/	2BB-\)	(4b-/	(4d\	f
8An/L	.	8cc/L	8e-\L	<
8A-X/J	.	8dd/J	8f\J	.
=13	=13	=13	=13	=13
4G/	(4C\	4ee-/	4g\	[
8Bn/L	8G\L	8dd/L	8f\L	.
8c/J	8A-\J	8cc/J)	8e-\J)	.
=14	=14	=14	=14	=14
!	!	!	!	!
(2c/	4En\	(4b-/	4g\	.
.	8F\L	8a-/L	8f\L	.
.	8A-\J	8f/J	8e-X\J	.
=15	=15	=15	=15	=15
4.B-/	4B-\	4g/	4.e-\	.
.	4BB-\)	4f/	.	.
8A-/)	.	.	8d\)	.
=16	=16	=16	=16	=16
!	!LO:TX:b:i:t=Ped.	!	!	!
2G/	(4E-\	([2e-/	(2B-\	pp
.	8D\L	.	.	.
.	8D-X\J	.	.	.
=17	=17	=17	=17	=17
[2E-/	4C\	2e-/_	4A-\	.
.	8BB-\L	.	8d\L	.
.	8AA-\J	.	8c\J	.
=18	=18	=18	=18	=18
2E-/]	4GG\	2e-/])	4B-\	.
.	8FF\L	.	8A-\L	.
.	8EE-\J)	.	8G\J)	.
=19	=19	=19	=19	=19
(4A-/	[2EE-\	(2e-/	2c\	p
8G/L	.	.	.	.
8A-/J	.	.	.	.
=20	=20	=20	=20	=20
(2A-/	2EE-\_	4f/	2c-X\	<
.	.	8e-/L	.	.
.	.	8f/J	.	[[
=21	=21	=21	=21	=21
2B-/))	2EE-;\]	2g;/)	2e-\	pp > ]
*v	*v	*	*	*
*	*v	*v	*
==	==	==
*-	*-	*-
!!!system-decoration: {(s1,s2)}
!!!EED: Andrzej Borzym
!!!EEV: 2021-08-08
!!!ENC: Katarzyna Serwa
!!!END: 2021-07-26
